X: 379
T: Been to the East, Been to the West
B: jims roots
M:2/4
L:1/4
Q: 1/4=100
K:G
V:1 
B/c/|"G"dd/A/ B/A/B/c/|dd B/A/B/c/|d/B/d/A/ B/A/B/B/|"D"A/ G G/ "G"GB/c/|
d/B/d/A/ B/A/B/B/|d/B/d/A/ B(g|"C"g/)B/d "D"B/A/B/B/|"G"A/ G G/ G:|
|:B|"G"g>e gg/(b/|"D"b)(a a)(a|a)a/a/ a/b/a/g/|"G (Bm)"f/ d d/ dd|
"C"(e/ e) (e/ e)e/f/|"D"g/f/g/f/ f/e/e/f/|"C"g/f/e/A/ "D"B/A/B|"G"A/ G G/ G:||
% abcbook-tune_id 6298c2459afea4a4ccc3a003


% abcbook-boost 0
% abcbook-tablature 
% abcbook-transpose 
% abcbook-lastupdated 1654178373271
% abcbook-soundfonts 
% abcbook-repeats 1


